X: 50
T:From Aberdeen
K:G
M:4/4
G2|B2 d2 d2 e2|d2 cB A3 d|B2 G2 B2 d2|g6 G2|B2 d2 d2 e2|d2 cB A3 d| B2 G2 B2 d2|g2 G4:|
|:b2 |g2 b2 g2 b2|a2 gf e3 f|g2 fe d2 B2|d6 f2|g3 f edc B| ABcd e3 g| d2 cB A2 G2|c5 B4|e2 fg fgag| g6:|

